X:1
T:Meillionen
C:Trad
L:1/16
Q:1/8=100
M:4/4
I:linebreak $
K:C
V:1 treble 
V:1
 G2 | c4 e2dc Bcde f2f2 | e2e2 fedc B>cde fdcB | c2g2 e2dc Bcdef2gf |$ e2e2 defd c2B2c2 :| ef | %6
 g2c2 B2c2 d6 ef | g2e2 fedc Bcde f>dcB |$ c2>d2 e2f2 gfede2de | f2>g2 a2g2 fgfe d2ef | %10
 e2e2 fedc Bcde f2gf | e2e2 defd c2B2c2 :| %12
